icons/Play-Sqaure.svg

<svg width="24" height="24" viewBox="0 0 24 24" fill="none" xmlns="http://www.w3.org/2000/svg">
<g id="Play-Sqaure">
<path id="Vector" d="M15.24 10.68L11.24 8.39997C11.0098 8.27615 10.7516 8.21377 10.4903 8.21886C10.229 8.22395 9.97337 8.29633 9.74819 8.42903C9.52301 8.56172 9.33585 8.75024 9.20479 8.97638C9.07373 9.20251 9.0032 9.45862 9 9.71997V14.28C8.99936 14.5471 9.06913 14.8097 9.20227 15.0412C9.33542 15.2728 9.52724 15.4652 9.75842 15.5991C9.9896 15.7329 10.252 15.8035 10.5191 15.8036C10.7862 15.8038 11.0487 15.7335 11.28 15.6L15.28 13.32C15.5082 13.1816 15.6963 12.9859 15.8255 12.7523C15.9547 12.5187 16.0206 12.2554 16.0165 11.9885C16.0125 11.7216 15.9387 11.4604 15.8025 11.2309C15.6662 11.0013 15.4723 10.8114 15.24 10.68Z" stroke="#00153F" stroke-width="1.5" stroke-linecap="round" stroke-linejoin="round"/>
<path id="Vector_2" d="M17 3H7C4.79086 3 3 4.79086 3 7V17C3 19.2091 4.79086 21 7 21H17C19.2091 21 21 19.2091 21 17V7C21 4.79086 19.2091 3 17 3Z" stroke="#00153F" stroke-width="1.5" stroke-linecap="round" stroke-linejoin="round"/>
</g>
</svg>

<svg xmlns="http://www.w3.org/2000/svg" fill="none" viewBox="0 0 24 24"><g stroke="currentColor" stroke-linecap="round" stroke-linejoin="round" stroke-width="1.5"><path d="m15.24 10.68-4-2.28A1.52 1.52 0 0 0 9 9.72v4.56a1.52 1.52 0 0 0 2.28 1.32l4-2.28a1.53 1.53 0 0 0-.04-2.64Z"/><path d="M17 3H7a4 4 0 0 0-4 4v10a4 4 0 0 0 4 4h10a4 4 0 0 0 4-4V7a4 4 0 0 0-4-4Z"/></g></svg>
